!!!!SEGMENT: pl-kk--kk-i-40--008-001_pottier-matthias--missa-sine-nomine-kyrie.krn
!!!cenid: 16xx:1306
!!!COM: Pottier, Matthias
!!!COM-rismid: pe41020834
!!!CDT: ~1553-1629
!!!CNT: Belgian
!!!OTL: Missa sine nomine – Kyrie
!!!PDT:
!!!AGN: Sacred; Mass
!!!SMS-siglum: PL-Kk
!!!SMS-shelfmark: Kk.I.40
!!!SMS-shelfwork: 008-001 M
!!!SMS-variant:
!!!SMS-altvar:
!!!NIFC-rismid: 1001154530
!!!URL-scan: http://repozytorium.nifc.pl/skany/pl-kk-nut--i-40
!!!ONB-nifc: UWAGA: części Mszy: 1. Kyrie, 2. Et in terra, 3. Sanctus, 4. Agnus Dei. Skan 0011-0012
**kern	**text
*I"Baſso Ripieno.	*
*I'B rip	*
*clefC4	*
*k[]	*
*d:	*
*M2/1	*
*met(C|)	*
=1-	=1-
1.d	Ky-
*2\right	*
!LO:TX:t=P:problem:kreska pseudotaktowa	!
2d\	-ri-
=2-	=2-
2A\	-e
2d\	e-
1c	-lei-
=3-	=3-
!LO:TX:t=P:problem:kreska pseudotaktowa	!
1G,<	-son
0r	.
=4-	=4-
.	.
!LO:TX:t=P:problem:kreska pseudotaktowa	!
1r	.
=5-	=5-
2r	.
*	*ij
1G	Ky-
2G/	-ri-
=6-	=6-
2D/	-e
!LO:TX:t=P:problem:kreska pseudotaktowa	!
2G/	e-
1F	-lei-
=7-	=7-
2C,</	-son
*	*Xij
2.c\	Ky-
4B\	.
4A/	-ri-
4G/	.
=8-	=8-
2F/	.
!LO:TX:t=P:problem:kreska pseudotaktowa	!
!LO:SIC:v:t=custos G	!
2C/	-e
!LO:LB:g=original	!
2G/	e-
!LO:TX:t=P:problem:kreska pseudotaktowa	!
2D/	.
=9-	=9-
4D/	.
4E/	.
4F/	.
4G/	.
!LO:TX:t=P:problem:kreska pseudotaktowa	!
1A	-lei-
=10-	=10-
2D,</	-son
*	*ij
1d	Ky-
2d\	-ri-
=11-	=11-
2A\	-e
!LO:TX:t=P:problem:kreska pseudotaktowa	!
2d\	e-
1c	-lei-
=12-	=12-
!LO:TX:t=P:problem:kreska pseudotaktowa	!
0G,<	-son
*	*Xij
=13-	=13-
1r	.
2r	.
1c\	Ky-
=14-	=14-
.	.
!LO:TX:t=P:problem:kreska pseudotaktowa	!
2c\	-ri-
2G/	-e
2c\	.
=15-	=15-
1B-X	e-
2F/	.
!LO:TX:t=P:problem:kreska pseudotaktowa	!
[2F/	-lei-
=16-	=16-
!LO:N:xstem:cue	!
4F/]	.
4G/	.
4A/	.
4Bny/	.
1c	.
=17-	=17-
2c\	.
!LO:TX:t=P:problem:kreska pseudotaktowa	!
2A\	.
1B-X	.
=18-	=18-
1A	.
2D,</	-son
*	*ij
!LO:TX:t=P:problem:kreska pseudotaktowa	!
[2D/	Ky-
=19-	=19-
!LO:N:xstem:cue	!
4D/]	.
4D/	ri-
2D/	-e
1G	e-
=20-	=20-
1G	-lei-
1Dl;	-son
*	*Xij
!LO:LB:g=original	!
=21||	=21||
*M2/1	*
*met(C|)	*
!LO:TX:a:t=1.	!
1r	.
1A	Chri-
=22-	=22-
2B-X\	-ste
2G/	e-
0A	-lei-
=23-	=23-
.	.
2D,</	-ſon
*	*ij
1d\	Chri-
=24-	=24-
.	.
!LO:TX:t=P:problem:kreska pseudotaktowa	!
2c#X\	-ste
1d	e-
=25-	=25-
1e	-lei-
2A,<\	-ſon
*	*Xij
!LO:TX:t=P:problem:kreska pseudotaktowa	!
2A\	X-
=26-	=26-
1B-X	-te
1G	e-
=27-	=27-
1A	-lei-
!LO:TX:t=P:problem:kreska pseudotaktowa	!
0E,<	-son
=28-	=28-
.	.
1r	.
=29-	=29-
*	*ij
1E	X-
2F/	-te
2D/	e-
=30-	=30-
1E	-lei-
!LO:TX:t=P:problem:kreska pseudotaktowa	!
1A,<	-son
*	*Xij
=31-	=31-
1r	.
2r	.
2A\	X-
=32-	=32-
2B-X\	-te
2G/	e-
1A	-lei-
=33-	=33-
!LO:TX:t=P:problem:podwójna kreska pseudotaktowa	!
1D	-son
!LO:TX:a:t=1.	!
1r	.
=34-	=34-
*	*ij
1A	X-
2B-X\	-te
2G/	e-
=35-	=35-
1A	-lei-
!LO:TX:t=P:problem:kreska pseudotaktowa	!
0E,<	-son
*	*Xij
=36-	=36-
.	.
!LO:TX:t=P:problem:kreska pseudotaktowa	!
1r	.
!LO:LB:g=original	!
=37-	=37-
1E	Chri-
2F/	.
2D/	.
=38-	=38-
1E	-ste
2A\	e-
2A\	-lei-
=39-	=39-
0D	.
=40-	=40-
0Al;	-son
=41||	=41||
*M2/1	*
*met(C|)	*
00r	.
=42-	=42-
.	.
=43-	=43-
!LO:TX:t=P:problem:kreska pseudotaktowa	!
1r	.
2.D/	Ky-
4D/	-ri-
=44-	=44-
2G/	-e
2B-X\	e-
1A	-lei-
=45-	=45-
!LO:TX:t=P:problem:kreska pseudotaktowa	!
0D,<	-son
=46-	=46-
!LO:TX:t=P:problem:kreska pseudotaktowa	!
1r	.
*	*ij
2.A\	Ky-
!LO:TX:t=P:problem:kreska pseudotaktowa	!
4A\	-ri-
=47-	=47-
2d\	-e
2f\	e-
1e	-lei-
=48-	=48-
!LO:TX:t=P:problem:kreska pseudotaktowa	!
0.A	-son
*	*Xij
=49-	=49-
.	.
2r	.
2.d\	Ky-
=50-	=50-
.	.
4d\	-ri-
!LO:TX:t=P:problem:kreska pseudotaktowa	!
2A\	-e
2B-X\	e-
2A\	-lei-
=51-	=51-
!LO:TX:t=P:problem:kreska pseudotaktowa	!
1D	-son
!LO:TX:t=P:problem:kreska pseudotaktowa	!
!LO:SIC:v:t=custos A	!
1r	.
!LO:LB:g=original	!
=52-	=52-
2.A/	Ky-
4A/	-ri-
2E/	-e
!LO:TX:t=P:problem:kreska pseudotaktowa	!
2F/	e-
=53-	=53-
1E	-lei-
!LO:TX:t=P:problem:kreska pseudotaktowa	!
0.A	-son
=54-	=54-
.	.
=55-	=55-
!LO:TX:t=P:problem:kreska pseudotaktowa	!
1r	.
*	*ij
2.D/	Ky-
!LO:TX:t=P:problem:kreska pseudotaktowa	!
4D/	-ri-
=56-	=56-
4G/	-e
4B-X/	e-
2A\	-lei-
!LO:TX:t=P:problem:kreska pseudotaktowa	!
1D,<	-son
*	*Xij
=57-	=57-
1r	.
2.A\	Ky-
!LO:TX:t=P:problem:kreska pseudotaktowa	!
4A\	-ri-
=58-	=58-
4d\	-e
4f\	e-
*2\left	*
2e\	-lei-
!LO:TX:t=P:problem:kreska pseudotaktowa	!
[<0A	-son
=59-	=59-
.	.
!LO:TX:t=P:problem:kreska pseudotaktowa	!
0A]	.
=60-	=60-
.	.
2r	.
2.D/	Ky-
=61-	=61-
.	.
4D/	-ri-
1G	-e
!LO:TX:t=P:problem:kreska pseudotaktowa	!
2F#X/	e-
=62-	=62-
1G	-lei-
1Dl;	-son.
==	==
*-	*-
!!!RDF**kern: < = below
!!!RDF**kern: l = terminal long
!!!ENC: Andrzej Kubiczek
!!!END: 2021-08-01
!!!ENC: Tomasz Grochalski
!!!END: 2021-07-05
